X:1481
T:Keeper Hill
R:reel
N:"collected from Cronin"
B:"O'Neill's Dance Music of Ireland, 1481"
T: cnoc ceupeir.
Z:transcribed by John B. Walsh, 8/22/96
M:C|
L:1/8
K:A
A,2 A,C EDEF|AGAc BABc|A,2 A,C EDEF|ABcA BAFA|
A,2 A,C EDEF|AGAc BABc|defd cdec|BABc BAFA||
cAae cAae|cAag fedc|dBbf dBbf|dBba gfed|
cAae cAae|cAag fedc|defg agae|dBcA BAFA||


